X:1
T:Les Sérénades
T:Sérénade Printanière
T:1. Sérénade printanière
T:Augusta Holmès
T:A Eugène Cougoul
T:Les Sérénades
T:(Holmès)
T:OpenScore (CC0)
T:OpenScore (CC0)
T:OpenScore (CC0)
T:OpenScore (CC0)
T:OpenScore (CC0)
C:Augusta Holmès
Z:Augusta Holmès
Z:OpenScore (CC0)
%%score 1 { ( 2 5 ) | ( 3 4 ) }
L:1/8
Q:1/4=58
M:3/4
K:B
V:1 treble nm="Chant\nVoice"
V:2 treble nm="Piano"
V:5 treble 
V:3 bass 
V:4 bass 
V:1
"^Andantino" z6 | z2 z2 z!p! (D | F3 D C B, | F4-) F!f! (B | c3 B F D | F/) z/!pp! (D/ E/ D2 C) z | %6
w: |Hi-|er comme au- jour-|d'hui, _ ce|soir com- me de-|main, Je t'a- do re!|
 z2!p! (3z C D (3E C A, | D2- (3D!f! D E (3F D B, | G z!mf! (B3 B |!>(! F2 C2-) C!>)! z | %10
w: Quand je vois ton re-|gard, _ quand je frô- le ta|main, C'est l'au-|\- ro- re! _|
 z!p! D F2 (3D C B, | F2- (3F!<(! B, C (3D E F!<)! | =G!f! z (B3 G | %13
w: Qui donc nous a- vait|dit _ que le monde est mé-|\- chant, Que l'on|
 =c2 (3:2:4F/) z/!<(! =D E (3F =G =A!<)! | (3_B z =d!f! e2 d z |!p! (3z (=A F =D2 D3/2 E/ | %16
w: souf- fre, Que la vie est un|pont qui trem- ble,|se pen- chant Sur un|
 =D2 C2) z!pp! (^D | E3 C B, A,) | D2- D z!f! (C B, | G2 E2)!f! (D C | =A2 F2) (E D |!f! (e4 (B2) | %22
w: gouf- fre? Où|donc sont les en-|\- nuis, _ les er-|reurs, _ les dan-|gers, _ Les dé-|sas- tres?|
 B2-) B) z z!p! D |"^rall."[Q:1/4=52]!<(! F4- F!<)! (B | %24
w: _ _ A-|vril _ ga-|
!mf! c B!>(! (3:2:4F/ z/"^dim." D E (3D C B,!>)! |[Q:1/4=58] F)!pp!"^a tempo" (D/ E/ C4 | %26
w: zouille et rit dans les tend- res ver-|\- gers Fleu- ris d'as-|
 B,2-) B, z z2 | z6 | z6 | z6 | z2 z2 z D | F D C3 B, | F4!<(! (3(D F B!<)! | %33
w: tres! _||||Le|sombre hi- ver a|fui; le ra- di-|
!f! c!>(! B F2-)!>)! F!p! (D/ E/ | D2 C2) z2 | z2!p! (3z C D (3E C A, | %36
w: \- eux prin- temps _ Nous dé-|li- vre.|Viens mê- ler à mes|
"^cresc." D2-!<(! (3D D E (3F D B,!<)! | G!f! z (!>!B3 !>!B | !>!F2!>(! !>!C4-)!>)! | %39
w: pleurs _ tes bai- sers ha- le-|tants; Je veux|vi- vre!|
 C2 z2 z!p! (F | =A3 F E =D | =A4-) A!f! (=d | e3 =d =A F | =A!>(! F/ =G/ F2 E2)!>)! | %44
w: _ Nos|cœurs sont con- fon-|dus, _ nos|â- mes pour tou-|jours Sont u- ni- es;|
 z2!p! (3z (=D!<(! F (3B c =d!<)! |!>(! c B F2 (3^D C B,!>)! | F)!pp! (D/ E/ C4 | B,2-) B, z z2 | %48
w: Nous a- vons é- pe-|\- lé le li- vre des a-|mours In- fi- ni-|es! _|
!p! E2 E E E E | D4!<(! C3/2 B,/!<)! | B4!>(! =A =G!>)! | F!p! (D/ E/ D2 C)!mf! z | %52
w: Et je ne vois plus|rien que l'é-|clair de tes|yeux Pleins  de fiè- vres...|
[Q:1/4=52]"^rall.    e     dim." d2- (d F) (3(=G B e | (3:2:2d2!>(! D) (3(cB F (3D C B,!>)! | %54
w: Viens! _ je veux sou- pi-|rer _ les _ su- prê- mes a-|
 F)!pp! (D/ E/ C4 |"^a tempo"[Q:1/4=58] B,2-) B, z z2 | z6 | z6 | z2 z2 z2 | z2 z2 z2 |] %60
w: \- veux Sur tes lè-|vres!.. _|||||
V:2
"^Andantino"!mf! z!<(! !arpeggio![Bdf] !arpeggio![Bdg]!<)!!>(! z!>)! !arpeggio![Bdf] z | %1
 z!<(!!8va(! !arpeggio![bd'f']!<)! !arpeggio![bd'g']!>(! z!>)! !arpeggio![bd'f']!8va)! z | %2
!p! z!<(! !arpeggio![Bdf]!<)! !arpeggio![Bdg]!>(! z!>)! !arpeggio![Bdf] z | %3
 z!<(!!8va(! !arpeggio![bd'f']!<)! !arpeggio![bd'g']!>(! z!>)! !arpeggio![bd'f']!8va)! z | %4
!f! z!<(! !arpeggio![dfb]!<)!!>(! !arpeggio![dfc'] z!>)! !arpeggio![dfb] z | %5
!pp! z!<(! !arpeggio![Acef]!<)!!>(! !arpeggio![Aceg] z!>)! !arpeggio![Acef] z | %6
!p! z!<(! !arpeggio![Acef] !arpeggio![Aceg]!<)!!>(! z!>)! !arpeggio![Acef] z | %7
!f! z!<(! !arpeggio![Bdf]!<)!!>(! !arpeggio![dg] z!>)! !arpeggio![Bdf] z | %8
!mf! z!<(! !arpeggio![egb]!<)!!>(! !arpeggio![egc'] z!>)! !arpeggio![egb] z | %9
!p! z!<(! !arpeggio![efac'] !arpeggio![efad']!<)!!>(! z!>)! !arpeggio![efac'] z | %10
 z!<(! !arpeggio![Bdf] !arpeggio![Bdg]!<)!!>(! z!>)! !arpeggio![Bdf] z | %11
 z!<(! !arpeggio![=Adf] !arpeggio![Adg]!<)!!>(! z!>)! !arpeggio![Adf] z | %12
"_crescendo" z!<(! !arpeggio![=GBe]!>(! !arpeggio![GBf]!<)! z!>)! !arpeggio![GBe] z | %13
 z!<(! !arpeggio![F=c=d]!>(! !arpeggio![Fce]!<)! z!>)! !arpeggio![Fcd] z | %14
!f!!<(! z !arpeggio![=G_B=d] !arpeggio![GBe]!<)!!>(! z!>)! !arpeggio![GBd] z | %15
!p! z!<(! !arpeggio![=A=df]!<)! !arpeggio![Ad=g]!>(! z!>)! !arpeggio![Adf] z | %16
 z!<(! !arpeggio![^Ae=g]!<)! !arpeggio![^Ae=a]!>(! z!>)! !arpeggio![Aeg] z | %17
!pp! z!<(! !arpeggio![Acef]!<)! !arpeggio![Ace^g]!>(! z!>)! !arpeggio![Acef]!p! z | %18
 z!<(! !arpeggio![Bdf]!<)! !arpeggio![Bdg]!>(! z!>)! !arpeggio![Bdf] z | %19
"_crescendo" z!<(! !arpeggio![Beg]!<)! !arpeggio![Bea]!>(! z!>)! !arpeggio![Beg] z | %20
 z!<(! !arpeggio![df=ab]!<)! !arpeggio![dfac']!>(! z!>)! !arpeggio![dfab] z | %21
 z!<(! !arpeggio![egb]!<)! !arpeggio![egc']!>(! z!>)! !arpeggio![egb] z | %22
!f! z!<(! !arpeggio![gbe']!<)! !arpeggio![gbf']!>(! z!>)! !arpeggio![gbe'] z | %23
"_rall." !arpeggio![fbd']/ z/!<(! !arpeggio![Bdf]!<)! !arpeggio![Bdg]!>(! z!>)! !arpeggio![Bdf] z | %24
!mf! z!<(! !arpeggio![dfb]!<)!"_dim." !arpeggio![dfc']!>(! z!>)! !arpeggio![dfb] z | %25
!pp! z!<(! !arpeggio![Acef]!<)! !arpeggio![Aceg]!>(! z!>)! !arpeggio![Acef] z | %26
 z!<(! !arpeggio![Bdf]!<)! !arpeggio![Bdg]!>(! z!>)! !arpeggio![Bdf] z |!p! [Bb]2 [ee']2 =g'2 | %28
!>(! [ff'][dd'][cc'][Bb]!>)! (3f[Dd][Ee] |!pp! x (d/e/ c4 | %30
!p! [DB]/) z/!<(! !arpeggio![Bdf]!<)! !arpeggio![Bdg]!>(! z!>)! !arpeggio![Bdf] z | %31
 z!<(! !arpeggio![Bdf]!<)! !arpeggio![Bdg]!>(! z!>)! !arpeggio![Bdf] z | %32
 z!<(!!8va(! !arpeggio![bd'f']!<)! !arpeggio![bd'g']!>(! z!>)! !arpeggio![bd'f']!8va)! z | %33
!mf! z!<(! !arpeggio![dfb] !arpeggio![dfc']!<)!!>(! z!>)! !arpeggio![dfb] z | %34
!p! z!<(! !arpeggio![Acef] !arpeggio![Aceg]!<)!!>(! z!>)! !arpeggio![Acef] z | %35
"_crescendo" z!<(!!8va(! !arpeggio![ac'e'f'] !arpeggio![ac'e'g']!<)!!>(! z!>)! !arpeggio![ac'e'f']!8va)! z | %36
 z!<(! !arpeggio![df=ab]!<)! !arpeggio![dfac']!>(! z!>)! !arpeggio![dfab] z | %37
!f! z!<(! !arpeggio![egb]!<)! !arpeggio![egc']!>(! z!>)! !arpeggio![egb] z | %38
"_dim." z!<(! !arpeggio![ef^ac']!<)! !arpeggio![efad']!>(! z!>)! !arpeggio![efac'] z | %39
!p! z!<(! !arpeggio![Acef]!<)! !arpeggio![Aceg]!>(! z!>)! !arpeggio![Acef] z | %40
!pp! z!<(! !arpeggio![=df=a]!<)! !arpeggio![dfb]!>(! z!>)! !arpeggio![dfa] z | %41
!f! z!<(!!8va(! !arpeggio![=d'f'=a']!<)! !arpeggio![d'f'b']!>(! z!>)! !arpeggio![d'f'a']!8va)! z | %42
!mf! z!<(! !arpeggio![f=a=d']!<)! !arpeggio![fae']!>(! z!>)! !arpeggio![fad'] z | %43
!p! z!<(! !arpeggio![ce=g=a]!<)! !arpeggio![cegb]!>(! z!>)! !arpeggio![cega] z | %44
!p! z!<(! !arpeggio![=dfb]!<)! !arpeggio![dfc']!>(! z!>)! !arpeggio![dfb] z | %45
!pp! z!<(! !arpeggio![^dfb]!<)! !arpeggio![dfc']!>(! z!>)! !arpeggio![dfb] z | %46
!pp! z!<(! !arpeggio![Acef]!<)! !arpeggio![Aceg]!>(! z!>)! !arpeggio![Acef] z | %47
 z!<(! !arpeggio![Bdf]!<)! !arpeggio![Bdg]!>(! z!>)! !arpeggio![Bdf] z | %48
!p! z!<(! !arpeggio![Be=g] !arpeggio![Be=a]!<)!!>(! z!>)! !arpeggio![Beg] z | %49
 z!<(! !arpeggio![Bdf] !arpeggio![Bd^g]!<)!!>(! z!>)! !arpeggio![Bdf] z | %50
!f! z!<(! !arpeggio![Be=g] !arpeggio![Be=a]!<)!!>(! z!>)! !arpeggio![Beg] z | %51
!p! z!<(! !arpeggio![^Acef]!<)! !arpeggio![Ace^g]!>(! z!>)! !arpeggio![Acef] z | %52
!mf!"_rall.    e     dim." z!<(! !arpeggio![Bdf]!<)! !arpeggio![Bdg]!>(! z!>)! !arpeggio![Be=g] z | %53
 z!<(! !arpeggio![Bdf]!<)! !arpeggio![Bd^g]!>(! z!>)! !arpeggio![Bdf] z | %54
!pp! z!<(! !arpeggio![Acef]!<)!!>(! !arpeggio![Aceg] z!>)! !arpeggio![Acef] z | %55
"_a tempo" z!<(! !arpeggio![Bdf]!<)!!>(! !arpeggio![Bdg] z!>)! !arpeggio![Bdf] z | %56
!p! [Bb]2 [ee']2 =g'2 | [ff']!>(![dd'][cc'][Bb]!>)! (3f[Dd][Ee] | x (d/e/ c4 | %59
 !arpeggio![DB])!ppp! z!8va(! !arpeggio![d'b']!8va)! z2 !fermata!z |] %60
V:3
!ped! z !arpeggio![F,B,DF]!ped-up!!ped! !arpeggio![F,B,DG] z!ped-up!!ped! !arpeggio![F,B,DF] z!ped-up! | %1
!ped! z !arpeggio![F,B,DF]!ped-up!!ped! !arpeggio![F,B,DG] z!ped-up!!ped! !arpeggio![F,B,DF] z!ped-up! | %2
!ped! z !arpeggio![F,B,DF]!ped-up!!ped! !arpeggio![F,B,DG] z!ped-up!!ped! !arpeggio![F,B,DF] z!ped-up! | %3
!ped! z !arpeggio![F,B,DF]!ped-up!!ped! !arpeggio![F,B,DG] z!ped-up!!ped! !arpeggio![F,B,DF] z!ped-up! | %4
!ped! z !arpeggio![F,B,DF]!ped-up!!ped! !arpeggio![F,B,DG] z!ped-up!!ped! !arpeggio![F,B,DF] z!ped-up! | %5
!ped! z !arpeggio![F,A,CE]!ped-up!!ped! !arpeggio![F,A,CF] z!ped-up!!ped! !arpeggio![F,A,CE] z!ped-up! | %6
!ped! z !arpeggio![F,A,CE]!ped-up!!ped! !arpeggio![F,A,CF] z!ped-up!!ped! !arpeggio![F,A,CE] z!ped-up! | %7
!ped! z !arpeggio![B,DF=A]!ped-up!!ped! !arpeggio![B,DFB] z!ped-up!!ped! !arpeggio![B,DFA] z!ped-up! | %8
!ped! z !arpeggio![B,EGB]!ped-up!!ped! !arpeggio![B,EGc] z!ped-up!!ped! !arpeggio![B,EGB] z!ped-up! | %9
!ped! z !arpeggio![F,A,CE]!ped-up!!ped! !arpeggio![F,A,CF] z!ped-up!!ped! !arpeggio![F,A,CE] z!ped-up! | %10
!ped! z !arpeggio![F,B,DF]!ped-up!!ped! !arpeggio![F,B,DG] z!ped-up!!ped! !arpeggio![F,B,DF] z!ped-up! | %11
!ped! z !arpeggio![F,B,DF]!ped-up!!ped! !arpeggio![F,B,DG] z!ped-up!!ped! !arpeggio![F,B,DF] z!ped-up! | %12
!ped! z !arpeggio![=G,B,E]!ped-up!!ped! !arpeggio![G,B,F] z!ped-up!!ped! !arpeggio![G,B,E] z!ped-up! | %13
!ped! z !arpeggio![=A,=C=D]!ped-up!!ped! !arpeggio![A,CE] z!ped-up!!ped! !arpeggio![A,CD] z!ped-up! | %14
!ped! z !arpeggio![=G,_B,=D]!ped-up!!ped! !arpeggio![G,B,E] z!ped-up!!ped! !arpeggio![G,B,D] z!ped-up! | %15
!ped! z !arpeggio![=A,=DF]!ped-up!!ped! !arpeggio![A,D=G] z!ped-up!!ped! !arpeggio![A,DF] z!ped-up! | %16
!ped! z !arpeggio![F,^CE]!ped-up!!ped! !arpeggio![F,CF] z!ped-up!!ped! !arpeggio![F,CE] z!ped-up! | %17
!ped! z !arpeggio![F,A,CE]!ped-up!!ped! !arpeggio![F,A,CF] z!ped-up!!ped! !arpeggio![F,A,CE] z!ped-up! | %18
!ped! z !arpeggio![F,B,DF]!ped-up!!ped! !arpeggio![F,B,DG] z!ped-up!!ped! !arpeggio![F,B,DF] z!ped-up! | %19
!ped! z !arpeggio![F,CE]!ped-up!!ped! !arpeggio![F,CF] z!ped-up!!ped! !arpeggio![F,CE] z!ped-up! | %20
!ped! z !arpeggio![B,DF=A]!ped-up!!ped! !arpeggio![B,DFB] z!ped-up!!ped! !arpeggio![B,DFA] z!ped-up! | %21
!ped! z !arpeggio![B,EGB]!ped-up!!ped! !arpeggio![B,EGc]!ped-up! z!ped! !arpeggio![B,EGB]!ped-up! z | %22
!ped! z !arpeggio![B,EGB]!ped-up!!ped! !arpeggio![B,EGc] z!ped-up!!ped! !arpeggio![B,EGB] z!ped-up! | %23
!ped! z !arpeggio![F,B,DF]!ped-up!!ped! !arpeggio![F,B,DG] z!ped-up!!ped! !arpeggio![F,B,DF] z!ped-up! | %24
!ped! z !arpeggio![F,B,DF]!ped-up!!ped! !arpeggio![F,B,DG] z!ped-up!!ped! !arpeggio![F,B,DF] z!ped-up! | %25
!ped! z !arpeggio![F,A,CE]!ped-up!!ped! !arpeggio![F,A,CF] z!ped-up!!ped! !arpeggio![F,A,CE] z!ped-up! | %26
!ped! z !arpeggio![F,B,DF]!ped-up!!ped! !arpeggio![F,B,DG] z!ped-up!!ped! !arpeggio![F,B,DF] z!ped-up! | %27
!ped! z !arpeggio![=G,B,E=G]!ped-up!!ped! !arpeggio![G,B,E=A] z!ped-up!!ped! !arpeggio![G,B,EG] z!ped-up! | %28
!ped! z !arpeggio![F,B,DF]!ped-up!!ped! !arpeggio![F,B,D^G] z!ped-up!!ped! !arpeggio![F,B,DF] z!ped-up! | %29
 x (D/E/ C4 | %30
 [B,,B,]/) z/ !arpeggio![F,B,DF]!ped! !arpeggio![F,B,DG] z!ped-up!!ped! !arpeggio![F,B,DF] z!ped-up! | %31
!ped! z !arpeggio![F,B,DF]!ped-up!!ped! !arpeggio![F,B,DG]!ped-up! z!ped! !arpeggio![F,B,DF]!ped-up! z | %32
!ped! z !arpeggio![F,B,DF]!ped-up!!ped! !arpeggio![F,B,DG]!ped-up! z!ped! !arpeggio![F,B,DF]!ped-up! z | %33
!ped! z !arpeggio![F,B,DF]!ped-up!!ped! !arpeggio![F,B,DG]!ped-up! z!ped! !arpeggio![F,B,DF]!ped-up! z | %34
!ped! z !arpeggio![F,A,CE]!ped-up!!ped! !arpeggio![F,A,CF]!ped-up! z!ped! !arpeggio![F,A,CE]!ped-up! z | %35
!ped! z !arpeggio![F,A,CE]!ped-up!!ped! !arpeggio![F,A,CF]!ped-up! z!ped! !arpeggio![F,A,CE]!ped-up! z | %36
!ped! z !arpeggio![B,DF=A]!ped-up!!ped! !arpeggio![B,DFB] z!ped-up!!ped! !arpeggio![B,DFA] z | %37
!ped! z !arpeggio![B,EGB]!ped-up!!ped! !arpeggio![B,EGc] z!ped-up!!ped! !arpeggio![B,EGB] z!ped-up! | %38
!ped! z !arpeggio![F,^A,CE]!ped-up!!ped! !arpeggio![F,A,CF] z!ped-up!!ped! !arpeggio![F,A,CE] z!ped-up! | %39
!ped! z !arpeggio![F,A,CE]!ped-up!!ped! !arpeggio![F,A,CF] z!ped-up!!ped! !arpeggio![F,A,CE] z!ped-up! | %40
!ped! z !arpeggio![=A,=DF=A]!ped-up!!ped! !arpeggio![A,DFB] z!ped-up!!ped! !arpeggio![A,DFA] z!ped-up! | %41
!ped! z !arpeggio![=A,=DF=A]!ped-up!!ped! !arpeggio![A,DFB] z!ped-up!!ped! !arpeggio![A,DFA] z!ped-up! | %42
!ped! z !arpeggio![=A,=DF=A]!ped-up!!ped! !arpeggio![A,DFB] z!ped-up!!ped! !arpeggio![A,DFA] z!ped-up! | %43
!ped! z !arpeggio![=A,CE=G]!ped-up!!ped! !arpeggio![A,CEA] z!ped-up!!ped! !arpeggio![A,CEG] z!ped-up! | %44
!ped! z !arpeggio![B,=DFB]!ped-up!!ped! !arpeggio![B,DFc] z!ped-up!!ped! !arpeggio![B,DFB] z!ped-up! | %45
!ped! z !arpeggio![F,B,^DF]!ped-up!!ped! !arpeggio![F,B,DG] z!ped-up!!ped! !arpeggio![F,B,DF] z!ped-up! | %46
!ped! z !arpeggio![F,A,CE]!ped-up!!ped! !arpeggio![F,A,CF] z!ped-up!!ped! !arpeggio![F,A,CE] z!ped-up! | %47
!ped! z !arpeggio![F,B,DF]!ped-up!!ped! !arpeggio![F,B,DG] z!ped-up!!ped! !arpeggio![F,B,DF] z!ped-up! | %48
!ped! z !arpeggio![=G,B,E]!ped-up!!ped! !arpeggio![G,B,F] z!ped-up!!ped! !arpeggio![G,B,E] z!ped-up! | %49
!ped! z !arpeggio![F,B,DF]!ped-up!!ped! !arpeggio![F,B,D^G] z!ped-up!!ped! !arpeggio![F,B,DF] z!ped-up! | %50
!ped! z !arpeggio![=G,B,E]!ped-up!!ped! !arpeggio![G,B,F] z!ped-up!!ped! !arpeggio![G,B,E] z!ped-up! | %51
!ped! z !arpeggio![F,^A,CE]!ped-up!!ped! !arpeggio![F,A,CF] z!ped-up!!ped! !arpeggio![F,A,CE] z!ped-up! | %52
!ped! z !arpeggio![F,B,DF]!ped-up!!ped! !arpeggio![F,B,DG] z!ped-up!!ped! !arpeggio![=G,B,E=G] z!ped-up! | %53
!ped! z !arpeggio![F,B,DF]!ped-up!!ped! !arpeggio![F,B,D^G] z!ped-up!!ped! !arpeggio![F,B,DF] z!ped-up! | %54
!ped! z !arpeggio![F,A,CE]!ped-up!!ped! !arpeggio![F,A,CF] z!ped-up!!ped! !arpeggio![F,A,CE] z!ped-up! | %55
!ped! z !arpeggio![F,B,DF]!ped-up!!ped! !arpeggio![F,B,DG] z!ped-up!!ped! !arpeggio![F,B,DF] z!ped-up! | %56
 z !arpeggio![=G,B,E=G] !arpeggio![G,B,E=A] z !arpeggio![G,B,EG] z | %57
 z !arpeggio![F,B,DF] !arpeggio![F,B,D^G] z !arpeggio![F,B,DF] z | F,,/ z/ (D/E/ C4 | %59
 [B,,B,]) z[K:treble] !arpeggio![Bdfb] z2 !fermata!z |] %60
V:4
 B,,,4- B,,, z | B,,,4- B,,, z | B,,,4- B,,, z | B,,,4- B,,, z | B,,,4- B,,, z | %5
 [C,,C,]4- [C,,C,] z | F,,4- F,, z | B,,,4- B,,, z | E,,4- E,, z | F,,4- F,, z | B,,,4- B,,, z | %11
 B,,,4- B,,, z | B,,,4- B,,, z | =D,,4- D,, z | =G,,4- G,, z | =D,,4- D,, z | F,,4- F,, z | %17
 F,,4- F,, z | F,,4- F,, z | F,,4- F,, z | B,,4- B,, z | E,,4- E,, z | E,,4- E,, z | F,,4- F,, z | %24
 F,,4- F,, z | F,,4- F,, z | B,,,4- B,,, z | B,,,4- B,,, z | F,,4- F,, z | %29
 F,,/ z/ !arpeggio![F,A,] z2 F, z | x6 | B,,,4- B,,, z | B,,,4- B,,, z | B,,,4- B,,, z | %34
 F,,4- F,, z | F,,4- F,, z | B,,4- B,, z | E,,4- E,, z | F,,4- F,, z | F,,4- F,, z | =D,,4- D,, z | %41
 =D,,4- D,, z | F,,4- F,, z | [E,,E,]4- [E,,E,] z | B,,4- B,, z | F,,4- F,, z | F,,4- F,, z | %47
 B,,,4- B,,, z | =G,,4- G,, z | B,,,4- B,,, z | E,,4- E,, z | F,,4- F,, z | F,,2- F,, z z2 | %53
 F,,4- F,, z | F,,4- F,, z | B,,,4- B,,, z | B,,,4- B,,, z | F,,4- F,, z | %58
 x !arpeggio![F,A,] z2 F, z | x2[K:treble] x4 |] %60
V:5
 x6 | x!8va(! x4!8va)! x | x6 | x!8va(! x4!8va)! x | x6 | x6 | x6 | x6 | x6 | x6 | x6 | x6 | x6 | %13
 x6 | x6 | x6 | x6 | x6 | x6 | x6 | x6 | x6 | x6 | x6 | x6 | x6 | x6 | z!<(! [e=g] (=a2!<)! =g2) | %28
 x6 | [Ff]/ z/ [FA] z2 [EFA] z | x6 | x6 | x!8va(! x4!8va)! x | x6 | x6 | x!8va(! x4!8va)! x | x6 | %37
 x6 | x6 | x6 | x6 | x!8va(! x4!8va)! x | x6 | x6 | x6 | x6 | x6 | x6 | x6 | x6 | x6 | x6 | x6 | %53
 x6 | x6 | x6 | z!<(! [e=g] (=a2!<)! =g2) | x6 | [Ff]/!pp! z/ [FA] z2 [EFA] z | %59
 x2!8va(! x!8va)! x3 |] %60

